!!!COM: Scriabin, Alexander
!!!OTL@@FR: Prelude
!!!OTL@@EN:
!!!OPR@@FR: 4 Preludes
!!!OPS: 39
!!!ONM: 3
!!!ODT: 1903
!!!AGN: Prelude
**kern	**kern	**dynam
*staff2	*staff1	*staff1/2
*Ipiano	*Ipiano	*
*clefF4	*clefG2	*
*k[f#]	*k[f#]	*
*G:	*G:	*
*M4/2	*M4/2	*
*	*^	*
*	*	*^	*
10BL	2ryy	6f#	[2d\	.
10A#X	.	.	.	.
.	.	6g	.	.
10c	.	.	.	.
10B	.	.	.	.
.	.	6g#X	.	.
10B-XJ	.	.	.	.
=1	=1	=1	=1	=1
10F#L	2raa	6bn	2d\]	.
10E#X	.	.	.	.
.	.	6g#X	.	.
10Gn	.	.	.	.
10F#	.	.	.	.
.	.	6a	.	.
10FnJ	.	.	.	.
10FL	1cc	2a-X	1d	.
10En	.	.	.	.
10G	.	.	.	.
10F	.	.	.	.
10BB-XJ	.	.	.	.
10A-XL	.	6e	.	.
10G	.	.	.	.
.	.	6gn	.	.
10B-X	.	.	.	.
10A-	.	.	.	.
.	.	6fn	.	.
10BB-J	.	.	.	.
10FL	6an	2a-X	2d\	.
10E	.	.	.	.
.	6cc	.	.	.
10G	.	.	.	.
10F	.	.	.	.
.	6b-X	.	.	.
10BB-J	.	.	.	.
=2	=2	=2	=2	=2
10E-XL	3a-X	2d-X	3B-X\	.
10Dn	.	.	.	.
10Fn	.	.	.	.
10E-	.	.	.	.
.	6g	.	6g\	.
10EE-XJ	.	.	.	.
10G-XL	[2b-X	1c	6dn\	.
10F	.	.	.	.
.	.	.	6fn\	.
10A-X	.	.	.	.
10G-	.	.	.	.
.	.	.	6e-X\	.
10AA-XJ	.	.	.	.
10E-L	4..b-]	.	2g-X\	.
10D	.	.	.	.
10F	.	.	.	.
10E-	.	.	.	.
10AA-J	.	.	.	.
.	16a-	.	.	.
10DL	3gn	2c	2An\	.
10C#X	.	.	.	.
10En	.	.	.	.
10D	.	.	.	.
.	6f#X	.	.	.
10DDJ	.	.	.	.
=3	=3	=3	=3	=3
10DL	2a	4B	2B\	.
10C#X	.	.	.	.
10E	.	.	.	.
.	.	4f#	.	.
10D	.	.	.	.
10GGJ	.	.	.	.
10BL	2raa	2g	1r	.
10A#X	.	.	.	.
10cn	.	.	.	.
10B	.	.	.	.
10DJ	.	.	.	.
10dL	1raa	2rc	.	.
10c#X	.	.	.	.
10e	.	.	.	.
10d	.	.	.	.
10GJ	.	.	.	.
10BL	.	6f#	[2d\	.
10A#	.	.	.	.
.	.	6g	.	.
10cn	.	.	.	.
10B	.	.	.	.
.	.	6g#X	.	.
10B-XJ	.	.	.	.
=4	=4	=4	=4	=4
10F#L	2raa	6bn	2d\]	.
10E#X	.	.	.	.
.	.	6g#X	.	.
10Gn	.	.	.	.
10F#	.	.	.	.
.	.	6a	.	.
10FnJ	.	.	.	.
10FL	1cc	2a-X	1d	.
10En	.	.	.	.
10G	.	.	.	.
10F	.	.	.	.
10BB-XJ	.	.	.	.
10A-XL	.	6e	.	.
10G	.	.	.	.
.	.	6gn	.	.
10B-X	.	.	.	.
10A-	.	.	.	.
.	.	6fn	.	.
10BB-J	.	.	.	.
10FL	6an	2a-X	2d\	.
10E	.	.	.	.
.	6cc	.	.	.
10G	.	.	.	.
10F	.	.	.	.
.	6b-X	.	.	.
10BB-J	.	.	.	.
=5	=5	=5	=5	=5
10E-XL	3a-X	2d-X	3B-X\	.
10Dn	.	.	.	.
10Fn	.	.	.	.
10E-	.	.	.	.
.	6g	.	6g\	.
10EE-XJ	.	.	.	.
10d-XL	[2ffn	6an	1g	.
10c	.	.	.	.
.	.	6cc	.	.
10e-X	.	.	.	.
10d-	.	.	.	.
.	.	6b-X	.	.
10E-J	.	.	.	.
10B-XL	4..ff]	2dd-X	.	.
10A	.	.	.	.
10c	.	.	.	.
10B-	.	.	.	.
10E-J	.	.	.	.
.	16ee-X	.	.	.
10AL	3ddn	2g	2en\	.
10G#X	.	.	.	.
10Bn	.	.	.	.
10A	.	.	.	.
.	6cc#X	.	.	.
10AAJ	.	.	.	.
=6	=6	=6	=6	=6
10AL	2ee	4f#	2f#\	.
10G#X	.	.	.	.
10B	.	.	.	.
.	.	4cc#X	.	.
10A	.	.	.	.
10DJ	.	.	.	.
10f#L	2dd	2dd	2r	.
10e#X	.	.	.	.
10gn	.	.	.	.
10f#	.	.	.	.
10AJ	.	.	.	.
10dL	2raa	1rc	2r	.
10c#X	.	.	.	.
10en	.	.	.	.
10d	.	.	.	.
10AJ	.	.	.	.
10AL	4.ccn	.	2fn\	.
10G#X	.	.	.	.
10B	.	.	.	.
10A	.	.	.	.
.	8cc	.	.	.
10G#J	.	.	.	.
=7	=7	=7	=7	=7
10AL	1cc	2rc	2fn\	.
10G#X	.	.	.	.
10B	.	.	.	.
10A	.	.	.	.
10G#J	.	.	.	.
10GnL	.	2a	2e\	.
10F#	.	.	.	.
10A	.	.	.	.
10G#X	.	.	.	.
10GnJ	.	.	.	.
10F#L	2b	2a	2d#X\	.
10E#X	.	.	.	.
10G	.	.	.	.
10E#	.	.	.	.
10F#J	.	.	.	.
10GL	3b-X	3b-	2e-X\	.
10F#	.	.	.	.
10A-X	.	.	.	.
10G	.	.	.	.
.	6bn	6g	.	.
10E-XJ	.	.	.	.
=8	=8	=8	=8	=8
10A-XL	2cc	2g	2e-X\	.
10G	.	.	.	.
10B-X	.	.	.	.
10A-	.	.	.	.
10E-XJ	.	.	.	.
10A-L	2g	2e-	2c\	.
10G	.	.	.	.
10B-	.	.	.	.
10A-	.	.	.	.
10E-J	.	.	.	.
10AnL	2f#	2d	2c\	.
10G#X	.	.	.	.
10Bn	.	.	.	.
10A	.	.	.	.
10DJ	.	.	.	.
10A-XL	2g	2e-	2c\	.
10Gn	.	.	.	.
10B-X	.	.	.	.
10A-	.	.	.	.
10E-J	.	.	.	.
=9	=9	=9	=9	=9
10A-XL	2g	2e-X	2c\	.
10G	.	.	.	.
10B-X	.	.	.	.
10A-	.	.	.	.
10E-XJ	.	.	.	.
10AnL	2f#	2d	2c\	.
10G#X	.	.	.	.
10Bn	.	.	.	.
10A	.	.	.	.
10DJ	.	.	.	.
10cL	2raa	2rc	2r	.
10B	.	.	.	.
10d	.	.	.	.
10c#X	.	.	.	.
10cnJ	.	.	.	.
10BL	2raa	6f#	[2d\	.
10A#X	.	.	.	.
.	.	6g	.	.
10c	.	.	.	.
10B	.	.	.	.
.	.	6g#X	.	.
10B-XJ	.	.	.	.
=10	=10	=10	=10	=10
10F#L	2raa	6bn	2d\]	.
10E#X	.	.	.	.
.	.	6g#X	.	.
10Gn	.	.	.	.
10F#	.	.	.	.
.	.	6a	.	.
10FnJ	.	.	.	.
10FL	1cc	2a-X	1d	.
10En	.	.	.	.
10G	.	.	.	.
10F	.	.	.	.
10BB-XJ	.	.	.	.
10A-XL	.	6e	.	.
10G	.	.	.	.
.	.	6gn	.	.
10B-X	.	.	.	.
10A-	.	.	.	.
.	.	6fn	.	.
10BB-J	.	.	.	.
10FL	6an	2a-X	2d\	.
10E	.	.	.	.
.	6cc	.	.	.
10G	.	.	.	.
10F	.	.	.	.
.	6b-X	.	.	.
10BB-J	.	.	.	.
=11	=11	=11	=11	=11
10E-XL	3a-X	2d-X	3B-X\	.
10Dn	.	.	.	.
10Fn	.	.	.	.
10E-	.	.	.	.
.	6g	.	6g\	.
10EE-XJ	.	.	.	.
10G-XL	[2b-X	1c	6dn\	.
10F	.	.	.	.
.	.	.	6fn\	.
10A-X	.	.	.	.
10G-	.	.	.	.
.	.	.	6e-X\	.
10AA-XJ	.	.	.	.
10E-L	4..b-]	.	2g-X\	.
10D	.	.	.	.
10F	.	.	.	.
10E-	.	.	.	.
10AA-J	.	.	.	.
.	16a-	.	.	.
10DL	3gn	2c	2An\	.
10C#X	.	.	.	.
10En	.	.	.	.
10D	.	.	.	.
.	6f#X	.	.	.
10DDJ	.	.	.	.
=12	=12	=12	=12	=12
10DL	2a	1.fn	1.B	.
10C#X	.	.	.	.
10E	.	.	.	.
10D	.	.	.	.
10GGJ	.	.	.	.
10DL	1g	.	.	.
10C#	.	.	.	.
10E	.	.	.	.
10D	.	.	.	.
10GGJ	.	.	.	.
10DL	.	.	.	.
10C#	.	.	.	.
10E	.	.	.	.
10D	.	.	.	.
10GGJ	.	.	.	.
10DL	3g	2f	2B\	.
10C#	.	.	.	.
10E	.	.	.	.
10D	.	.	.	.
.	6g	.	.	.
10GGJ	.	.	.	.
=13	=13	=13	=13	=13
10CnL	1.g	1.e	1B	.
10BB	.	.	.	.
10D	.	.	.	.
10C	.	.	.	.
10GGJ	.	.	.	.
10CL	.	.	.	.
10BB	.	.	.	.
10D	.	.	.	.
10C	.	.	.	.
10GGJ	.	.	.	.
10CL	.	.	2A\	.
10BB	.	.	.	.
10D	.	.	.	.
10C	.	.	.	.
10GGJ	.	.	.	.
10EL	2a	2g	2c\	.
10D	.	.	.	.
10Fn	.	.	.	.
10E	.	.	.	.
10GGJ	.	.	.	.
=14	=14	=14	=14	=14
0GGG 0GG 0D	0dd	0g	0B	.
*	*v	*v	*v	*
==	==	==
*-	*-	*-
!!!system-decoration: {(*)}
!!!ENC: Bryan Jacob Bell
!!!END: November 2021 to April 2022
!!!PED: Konstantin Igumnov and Yakov Milstein
!!!PTL: A.N. Skryabin: Polnoe sobranie sochinenii dlia fortepiano (Muzgiz)
